img/glass.svg

<svg version="1.1" xmlns="http://www.w3.org/2000/svg" xmlns:xlink="http://www.w3.org/1999/xlink" width="101" height="100"><defs/><g><rect fill="black" stroke="none" x="0" y="0" width="101" height="100"/><g/><path fill="none" stroke="rgb(0,255,0)" paint-order="fill stroke markers" d=" M -33.35923224187804 34.33210126335915 L -22.062050782638064 79.71750127294916" stroke-miterlimit="10" stroke-width="4" stroke-dasharray=""/><path fill="none" stroke="rgb(128,128,128)" paint-order="fill stroke markers" d=" M -35.3000109516794 34.815193386645994 L -24.002829492439417 80.200593396236" stroke-opacity="255" stroke-miterlimit="10" stroke-width="2" stroke-dasharray=""/><path fill="white" stroke="none" paint-order="stroke fill markers" d=" M 26.417289123577735 12.026068457732922 L 60.0461740323704 9.052085438587993 L 64.76537214611065 28.72612694985445 L 64.76537214611065 28.726126949854443 A 18.75944491146336 18.75944491146336 0 1 0 66.45167591975948 65.55776280234167 L 66.22290799520987 84.31673261540968 L 28.476200444524224 87.97701940820343 L 26.417289123577735 12.026068457732922" fill-opacity="0.2"/><path fill="none" stroke="rgb(255,255,128)" paint-order="fill stroke markers" d=" M -34.09228064346229 39.667140161149376 L 26.756006839490087 24.52098864472202" stroke-miterlimit="10" stroke-dasharray=""/><path fill="none" stroke="rgb(255,255,128)" paint-order="fill stroke markers" d=" M -31.676820027028075 49.37103371015615 L 27.033490706713845 34.757060191198526" stroke-miterlimit="10" stroke-dasharray=""/><path fill="none" stroke="rgb(255,255,128)" paint-order="fill stroke markers" d=" M -29.261359410593858 59.07492725916292 L 27.310974573937607 44.993131737675036" stroke-miterlimit="10" stroke-dasharray=""/><path fill="none" stroke="rgb(255,255,128)" paint-order="fill stroke markers" d=" M -26.845898794159645 68.77882080816968 L 27.588458441161368 55.22920328415155" stroke-miterlimit="10" stroke-dasharray=""/><path fill="none" stroke="rgb(255,255,128)" paint-order="fill stroke markers" d=" M -24.430438177725428 78.48271435717646 L 27.865942308385126 65.46527483062802" stroke-miterlimit="10" stroke-dasharray=""/><path fill="none" stroke="rgb(255,255,128)" paint-order="fill stroke markers" d=" M 26.756006839490087 24.52098864472202 L -2218.803490954397 -406.77458844673697" stroke-miterlimit="10" stroke-opacity="0.04003738729250943" stroke-dasharray=""/><path fill="none" stroke="rgb(255,255,128)" paint-order="fill stroke markers" d=" M 27.033490706713845 34.757060191198526 L -2228.850848825941 -398.5215677080685" stroke-miterlimit="10" stroke-opacity="0.04003738729250943" stroke-dasharray=""/><path fill="none" stroke="rgb(255,255,128)" paint-order="fill stroke markers" d=" M 27.310974573937607 44.993131737675036 L -2238.898206697483 -390.268546969408" stroke-miterlimit="10" stroke-opacity="0.04003738729250943" stroke-dasharray=""/><path fill="none" stroke="rgb(255,255,128)" paint-order="fill stroke markers" d=" M 27.588458441161368 55.22920328415155 L -2248.945564569025 -382.0155262307474" stroke-miterlimit="10" stroke-opacity="0.04003738729250943" stroke-dasharray=""/><path fill="none" stroke="rgb(255,255,128)" paint-order="fill stroke markers" d=" M 27.865942308385126 65.46527483062802 L -2258.992922440568 -373.762505492087" stroke-miterlimit="10" stroke-opacity="0.04003738729250943" stroke-dasharray=""/><path fill="none" stroke="rgb(255,255,128)" paint-order="fill stroke markers" d=" M 26.756006839490087 24.52098864472202 L 62.284670433878716 18.38423680512404" stroke-miterlimit="10" stroke-opacity="0.9599626127074905" stroke-dasharray=""/><path fill="none" stroke="rgb(255,255,128)" paint-order="fill stroke markers" d=" M 27.033490706713845 34.757060191198526 L 55.11194875613907 29.907158403305136" stroke-miterlimit="10" stroke-opacity="0.9599626127074905" stroke-dasharray=""/><path fill="none" stroke="rgb(255,255,128)" paint-order="fill stroke markers" d=" M 27.310974573937607 44.993131737675036 L 44.117631809994435 42.09017186594048" stroke-miterlimit="10" stroke-opacity="0.9599626127074905" stroke-dasharray=""/><path fill="none" stroke="rgb(255,255,128)" paint-order="fill stroke markers" d=" M 27.588458441161368 55.22920328415155 L 44.0803234700359 52.38061645832076" stroke-miterlimit="10" stroke-opacity="0.9599626127074905" stroke-dasharray=""/><path fill="none" stroke="rgb(255,255,128)" paint-order="fill stroke markers" d=" M 27.865942308385126 65.46527483062802 L 50.0380208666098 61.635562983504585" stroke-miterlimit="10" stroke-opacity="0.9599626127074905" stroke-dasharray=""/><path fill="none" stroke="rgb(255,255,128)" paint-order="fill stroke markers" d=" M 62.284670433878716 18.38423680512404 L 26.886280111384995 29.326624896845193" stroke-miterlimit="10" stroke-opacity="0.03839860248610525" stroke-dasharray=""/><path fill="none" stroke="rgb(255,255,128)" paint-order="fill stroke markers" d=" M 44.117631809994435 42.09017186594048 L 26.809015776541443 26.476429433727656" stroke-miterlimit="10" stroke-opacity="0.044502286307983425" stroke-dasharray=""/><path fill="none" stroke="rgb(255,255,128)" paint-order="fill stroke markers" d=" M 44.0803234700359 52.38061645832076 L 27.687384042370457 58.87845879542" stroke-miterlimit="10" stroke-opacity="0.03840442141230874" stroke-dasharray=""/><path fill="none" stroke="rgb(255,255,128)" paint-order="fill stroke markers" d=" M 50.0380208666098 61.635562983504585 L 49.97897513496231 85.89190186246398" stroke-miterlimit="10" stroke-opacity="0.23764812461112597" stroke-dasharray=""/><path fill="none" stroke="rgb(255,255,128)" paint-order="fill stroke markers" d=" M 62.284670433878716 18.38423680512404 L 2356.0174914121135 -301.9628113613206" stroke-miterlimit="10" stroke-opacity="0.9215640102213853" stroke-dasharray=""/><path fill="none" stroke="rgb(255,255,128)" paint-order="fill stroke markers" d=" M 55.11194875613907 29.907158403305136 L 63.65600500221685 24.101244774076577" stroke-miterlimit="10" stroke-opacity="0.9599626127074905" stroke-dasharray=""/><path fill="none" stroke="rgb(255,255,128)" paint-order="fill stroke markers" d=" M 44.117631809994435 42.09017186594048 L 2150.60779675192 -933.7266458498432" stroke-miterlimit="10" stroke-opacity="0.9154603263995071" stroke-dasharray=""/><path fill="none" stroke="rgb(255,255,128)" paint-order="fill stroke markers" d=" M 44.0803234700359 52.38061645832076 L 2359.347006169884 -224.69445758523975" stroke-miterlimit="10" stroke-opacity="0.9215581912951818" stroke-dasharray=""/><path fill="none" stroke="rgb(255,255,128)" paint-order="fill stroke markers" d=" M 50.0380208666098 61.635562983504585 L 58.98749364852918 65.79364589004635" stroke-miterlimit="10" stroke-opacity="0.7223144880963646" stroke-dasharray=""/><path fill="none" stroke="rgb(255,255,128)" paint-order="fill stroke markers" d=" M 26.886280111384995 29.326624896845193 L -2043.4607899405837 1011.5758991887055" stroke-miterlimit="10" stroke-opacity="0.03683747603987873" stroke-dasharray=""/><path fill="none" stroke="rgb(255,255,128)" paint-order="fill stroke markers" d=" M 26.809015776541443 26.476429433727656 L 42.60309320329782 10.594670818029785" stroke-miterlimit="10" stroke-opacity="0.044502286307983425" stroke-dasharray=""/><path fill="none" stroke="rgb(255,255,128)" paint-order="fill stroke markers" d=" M 27.687384042370457 58.87845879542 L -1929.8569796492825 1307.5585095495212" stroke-miterlimit="10" stroke-opacity="0.03678081139344776" stroke-dasharray=""/><path fill="none" stroke="rgb(255,255,128)" paint-order="fill stroke markers" d=" M 49.97897513496231 85.89190186246398 L -73.95949252231203 2453.847552301922" stroke-miterlimit="10" stroke-opacity="0.227974170248871" stroke-dasharray=""/><path fill="none" stroke="rgb(255,255,128)" paint-order="fill stroke markers" d=" M 63.65600500221685 24.101244774076577 L 26.61743285578106 19.40914835678912" stroke-miterlimit="10" stroke-opacity="0.04031081204044383" stroke-dasharray=""/><path fill="none" stroke="rgb(255,255,128)" paint-order="fill stroke markers" d=" M 58.98749364852918 65.79364589004635 L 2407.9174046593653 -163.6274944431169" stroke-miterlimit="10" stroke-opacity="0.158464335276845" stroke-dasharray=""/><path fill="none" stroke="rgb(255,255,128)" paint-order="fill stroke markers" d=" M 63.65600500221685 24.101244774076577 L 1691.275296280466 -1633.4787090212694" stroke-miterlimit="10" stroke-opacity="0.9196518006670467" stroke-dasharray=""/><path fill="none" stroke="rgb(255,255,128)" paint-order="fill stroke markers" d=" M 58.98749364852918 65.79364589004635 L 66.29662387956775 78.27203009806533" stroke-miterlimit="10" stroke-opacity="0.5638501528195197" stroke-dasharray=""/><path fill="none" stroke="rgb(255,255,128)" paint-order="fill stroke markers" d=" M 42.60309320329782 10.594670818029785 L 64.02018213122997 25.619476427203647" stroke-miterlimit="10" stroke-opacity="0.044502286307983425" stroke-dasharray=""/><path fill="none" stroke="rgb(255,255,128)" paint-order="fill stroke markers" d=" M 26.61743285578106 19.40914835678912 L -2207.5613508870856 -442.12615462903676" stroke-miterlimit="10" stroke-opacity="0.038644295443075696" stroke-dasharray=""/><path fill="none" stroke="rgb(255,255,128)" paint-order="fill stroke markers" d=" M 66.29662387956775 78.27203009806533 L 62.32085372791363 84.69511363526871" stroke-miterlimit="10" stroke-opacity="0.5638501528195197" stroke-dasharray=""/><path fill="none" stroke="rgb(255,255,128)" paint-order="fill stroke markers" d=" M 64.02018213122997 25.619476427203647 L 62.46691677177806 28.544221533836428" stroke-miterlimit="10" stroke-opacity="0.044502286307983425" stroke-dasharray=""/><path fill="none" stroke="rgb(255,255,128)" paint-order="fill stroke markers" d=" M 62.32085372791363 84.69511363526871 L 27.36514198454252 46.991307328878605" stroke-miterlimit="10" stroke-opacity="0.046455630367824005" stroke-dasharray=""/><path fill="none" stroke="rgb(255,255,128)" paint-order="fill stroke markers" d=" M 62.32085372791363 84.69511363526871 L -1996.9548411423764 1282.583647292744" stroke-miterlimit="10" stroke-opacity="0.5173945224516956" stroke-dasharray=""/><path fill="none" stroke="rgb(255,255,128)" paint-order="fill stroke markers" d=" M 62.46691677177806 28.544221533836428 L 43.40993718100686 48.36976400122224" stroke-miterlimit="10" stroke-opacity="0.04118339300966402" stroke-dasharray=""/><path fill="none" stroke="rgb(255,255,128)" paint-order="fill stroke markers" d=" M 27.36514198454252 46.991307328878605 L 58.803305923561105 9.161998944809222" stroke-miterlimit="10" stroke-opacity="0.046455630367824005" stroke-dasharray=""/><path fill="none" stroke="rgb(255,255,128)" paint-order="fill stroke markers" d=" M 43.40993718100686 48.36976400122224 L 27.65150275932456 57.55483813194928" stroke-miterlimit="10" stroke-opacity="0.0381419064853575" stroke-dasharray=""/><path fill="none" stroke="rgb(255,255,128)" paint-order="fill stroke markers" d=" M 58.803305923561105 9.161998944809222 L 60.394714495584516 10.505128810864642" stroke-miterlimit="10" stroke-opacity="0.046455630367824005" stroke-dasharray=""/><path fill="none" stroke="rgb(255,255,128)" paint-order="fill stroke markers" d=" M 27.65150275932456 57.55483813194928 L -1536.967983180924 1771.2748515617875" stroke-miterlimit="10" stroke-opacity="0.03503798232939295" stroke-dasharray=""/><path fill="none" stroke="rgb(255,255,128)" paint-order="fill stroke markers" d=" M 60.394714495584516 10.505128810864642 L 51.353480728737125 31.951808855801715" stroke-miterlimit="10" stroke-opacity="0.046455630367824005" stroke-dasharray=""/><path fill="none" stroke="rgb(255,255,128)" paint-order="fill stroke markers" d=" M 51.353480728737125 31.951808855801715 L 26.992615580141745 33.249222188761216" stroke-miterlimit="10" stroke-opacity="0.046455630367824005" stroke-dasharray=""/><path fill="none" stroke="rgb(255,255,128)" paint-order="fill stroke markers" d=" M 26.992615580141745 33.249222188761216 L -2263.5368913121397 185.25695271097226" stroke-miterlimit="10" stroke-opacity="0.04459450879097351" stroke-dasharray=""/><path fill="none" stroke="rgb(0,255,0)" paint-order="fill stroke markers" d=" M -33.35923224187804 34.33210126335915 L -22.062050782638064 79.71750127294916" stroke-miterlimit="10" stroke-width="4" stroke-dasharray=""/><path fill="none" stroke="rgb(128,128,128)" paint-order="fill stroke markers" d=" M -35.3000109516794 34.815193386645994 L -24.002829492439417 80.200593396236" stroke-opacity="255" stroke-miterlimit="10" stroke-width="2" stroke-dasharray=""/></g></svg>

<svg xmlns="http://www.w3.org/2000/svg" width="101" height="100"><path d="M0 0h101v100H0z"/><path fill="none" stroke="#0F0" paint-order="fill stroke markers" d="m-33.36 34.332 11.298 45.386" stroke-miterlimit="10" stroke-width="4"/><path fill="none" stroke="gray" paint-order="fill stroke markers" d="m-35.3 34.815 11.297 45.386" stroke-opacity="255" stroke-miterlimit="10" stroke-width="2"/><path fill="#fff" paint-order="stroke fill markers" d="m26.417 12.026 33.63-2.974 4.718 19.674a18.76 18.76 0 1 0 1.687 36.832l-.23 18.759-37.746 3.66-2.059-75.95" fill-opacity=".2"/><path fill="none" stroke="#FFFF80" paint-order="fill stroke markers" d="m-34.092 39.667 60.848-15.146M-31.677 49.371l58.71-14.614M-29.261 59.075 27.31 44.993M-26.846 68.779l54.434-13.55M-24.43 78.483l52.296-13.018" stroke-miterlimit="10"/><path fill="none" stroke="#FFFF80" paint-order="fill stroke markers" d="m26.756 24.521-2245.56-431.296M27.033 34.757-2228.85-398.522M27.311 44.993l-2266.21-435.262M27.588 55.23l-2276.534-437.246M27.866 65.465l-2286.859-439.228" stroke-miterlimit="10" stroke-opacity=".04"/><path fill="none" stroke="#FFFF80" paint-order="fill stroke markers" d="m26.756 24.521 35.529-6.137M27.033 34.757l28.079-4.85M27.311 44.993l16.807-2.903M27.588 55.23l16.492-2.85M27.866 65.465l22.172-3.83" stroke-miterlimit="10" stroke-opacity=".96"/><path fill="none" stroke="#FFFF80" paint-order="fill stroke markers" d="M62.285 18.384 26.886 29.327" stroke-miterlimit="10" stroke-opacity=".038"/><path fill="none" stroke="#FFFF80" paint-order="fill stroke markers" d="M44.118 42.09 26.809 26.476" stroke-miterlimit="10" stroke-opacity=".045"/><path fill="none" stroke="#FFFF80" paint-order="fill stroke markers" d="m44.08 52.38-16.393 6.498" stroke-miterlimit="10" stroke-opacity=".038"/><path fill="none" stroke="#FFFF80" paint-order="fill stroke markers" d="m50.038 61.636-.059 24.256" stroke-miterlimit="10" stroke-opacity=".238"/><path fill="none" stroke="#FFFF80" paint-order="fill stroke markers" d="m62.285 18.384 2293.732-320.347" stroke-miterlimit="10" stroke-opacity=".922"/><path fill="none" stroke="#FFFF80" paint-order="fill stroke markers" d="m55.112 29.907 8.544-5.806" stroke-miterlimit="10" stroke-opacity=".96"/><path fill="none" stroke="#FFFF80" paint-order="fill stroke markers" d="m44.118 42.09 2106.49-975.817" stroke-miterlimit="10" stroke-opacity=".915"/><path fill="none" stroke="#FFFF80" paint-order="fill stroke markers" d="m44.08 52.38 2315.267-277.074" stroke-miterlimit="10" stroke-opacity=".922"/><path fill="none" stroke="#FFFF80" paint-order="fill stroke markers" d="m50.038 61.636 8.95 4.158" stroke-miterlimit="10" stroke-opacity=".722"/><path fill="none" stroke="#FFFF80" paint-order="fill stroke markers" d="m26.886 29.327-2070.347 982.249" stroke-miterlimit="10" stroke-opacity=".037"/><path fill="none" stroke="#FFFF80" paint-order="fill stroke markers" d="m26.809 26.476 15.794-15.881" stroke-miterlimit="10" stroke-opacity=".045"/><path fill="none" stroke="#FFFF80" paint-order="fill stroke markers" d="m27.687 58.878-1957.544 1248.68" stroke-miterlimit="10" stroke-opacity=".037"/><path fill="none" stroke="#FFFF80" paint-order="fill stroke markers" d="M49.979 85.892-73.959 2453.848" stroke-miterlimit="10" stroke-opacity=".228"/><path fill="none" stroke="#FFFF80" paint-order="fill stroke markers" d="M63.656 24.101 26.617 19.41" stroke-miterlimit="10" stroke-opacity=".04"/><path fill="none" stroke="#FFFF80" paint-order="fill stroke markers" d="m58.987 65.794 2348.93-229.421" stroke-miterlimit="10" stroke-opacity=".158"/><path fill="none" stroke="#FFFF80" paint-order="fill stroke markers" d="m63.656 24.101 1627.62-1657.58" stroke-miterlimit="10" stroke-opacity=".92"/><path fill="none" stroke="#FFFF80" paint-order="fill stroke markers" d="m58.987 65.794 7.31 12.478" stroke-miterlimit="10" stroke-opacity=".564"/><path fill="none" stroke="#FFFF80" paint-order="fill stroke markers" d="M42.603 10.595 64.02 25.619" stroke-miterlimit="10" stroke-opacity=".045"/><path fill="none" stroke="#FFFF80" paint-order="fill stroke markers" d="M26.617 19.41-2207.56-442.127" stroke-miterlimit="10" stroke-opacity=".039"/><path fill="none" stroke="#FFFF80" paint-order="fill stroke markers" d="m66.297 78.272-3.976 6.423" stroke-miterlimit="10" stroke-opacity=".564"/><path fill="none" stroke="#FFFF80" paint-order="fill stroke markers" d="m64.02 25.62-1.553 2.924" stroke-miterlimit="10" stroke-opacity=".045"/><path fill="none" stroke="#FFFF80" paint-order="fill stroke markers" d="M62.32 84.695 27.366 46.991" stroke-miterlimit="10" stroke-opacity=".046"/><path fill="none" stroke="#FFFF80" paint-order="fill stroke markers" d="m62.32 84.695-2059.275 1197.889" stroke-miterlimit="10" stroke-opacity=".517"/><path fill="none" stroke="#FFFF80" paint-order="fill stroke markers" d="M62.467 28.544 43.41 48.37" stroke-miterlimit="10" stroke-opacity=".041"/><path fill="none" stroke="#FFFF80" paint-order="fill stroke markers" d="M27.365 46.991 58.803 9.162" stroke-miterlimit="10" stroke-opacity=".046"/><path fill="none" stroke="#FFFF80" paint-order="fill stroke markers" d="m43.41 48.37-15.758 9.185" stroke-miterlimit="10" stroke-opacity=".038"/><path fill="none" stroke="#FFFF80" paint-order="fill stroke markers" d="m58.803 9.162 1.592 1.343" stroke-miterlimit="10" stroke-opacity=".046"/><path fill="none" stroke="#FFFF80" paint-order="fill stroke markers" d="m27.652 57.555-1564.62 1713.72" stroke-miterlimit="10" stroke-opacity=".035"/><path fill="none" stroke="#FFFF80" paint-order="fill stroke markers" d="m60.395 10.505-9.042 21.447M51.353 31.952l-24.36 1.297" stroke-miterlimit="10" stroke-opacity=".046"/><path fill="none" stroke="#FFFF80" paint-order="fill stroke markers" d="m26.993 33.25-2290.53 152.007" stroke-miterlimit="10" stroke-opacity=".045"/><path fill="none" stroke="#0F0" paint-order="fill stroke markers" d="m-33.36 34.332 11.298 45.386" stroke-miterlimit="10" stroke-width="4"/><path fill="none" stroke="gray" paint-order="fill stroke markers" d="m-35.3 34.815 11.297 45.386" stroke-opacity="255" stroke-miterlimit="10" stroke-width="2"/></svg>
